; generated by PrusaSlicer 2.6.1+MacOS-x64 on 2023-12-10 at 10:11:36 UTC
;
;
; 
; external perimeters extrusion width = 0.45mm
; perimeters extrusion width = 0.45mm
; infill extrusion width = 0.45mm
; solid infill extrusion width = 0.45mm
; top infill extrusion width = 0.40mm
; first layer extrusion width = 0.42mm
; external perimeters extrusion width = 0.45mm
; perimeters extrusion width = 0.45mm
; infill extrusion width = 0.45mm
; solid infill extrusion width = 0.45mm
; top infill extrusion width = 0.40mm
; first layer extrusion width = 0.42mm
M73 P0 R80
M73 Q0 S81
M201 X1000 Y1000 Z200 E5000 ; sets maximum accelerations, mm/sec^2
M203 X200 Y200 Z12 E120 ; sets maximum feedrates, mm / sec
M204 S1250 T1250 ; sets acceleration (S) and retract acceleration (R), mm/sec^2
M205 X8.00 Y8.00 Z0.40 E4.50 ; sets the jerk limits, mm/sec
M205 S0 T0 ; sets the minimum extruding and travel feed rate, mm/sec
;TYPE:Custom
M862.3 P "MK3S" ; printer model check
M862.1 P0.4 ; nozzle diameter check
M115 U3.9.3 ; tell printer latest fw version
M140 S60 ; set bed temp
G90 ; use absolute coordinates
M83 ; extruder relative mode
G28 XYW
M190 S60 ; wait for bed temp
M104 S215 ; set extruder temp
G28 ZW
G80 ; mesh bed leveling
M109 S215 ; wait for extruder temp
G1 Y-3.0 F1000.0 ; go outside print area
G92 E0.0
G1 X60.0 E9.0 F1000.0 ; intro line
G1 X100.0 E12.5 F1000.0 ; intro line
G92 E0.0
M221 S95
; Don't change E values below. Excessive value can damage the printer.
M907 E430 ; set extruder motor current
G21 ; set units to millimeters
G90 ; use absolute coordinates
M83 ; use relative distances for extrusion
M900 K0.05 ; Filament gcode LA 1.5
M900 K30 ; Filament gcode LA 1.0
M107
;LAYER_CHANGE
M117 INDICATOR-Layer1
;Z:0.2
;HEIGHT:0.2
;BEFORE_LAYER_CHANGE
M117 DASHBOARD_LAYER_INDICATOR 1
G92 E0.0
;0.2
G1 E-.8 F2100
G1 Z.4 F720
;AFTER_LAYER_CHANGE
;0.2
G1 X87.518 Y85.084 F10800
G1 Z.2 F720
G1 E.8 F2100
M204 S800
;TYPE:Skirt/Brim
;WIDTH:0.42
G1 F1200
G1 X88.267 Y84.457 E.03063
G1 X100.955 Y75.459 E.48771
G1 X102.234 Y74.769 E.04557
G1 X103.018 Y74.477 E.02623
M73 Q0 S80
G1 X104.16 Y74.204 E.03682
G1 X105.59 Y74.091 E.04498
G1 X150.994 Y75.811 E1.42463
G1 X160.637 Y78.046 E.31036
G1 X161.495 Y78.37 E.02876
G1 X162.601 Y79.047 E.04066
G1 X163.639 Y80.086 E.04605
G1 X164.315 Y81.188 E.04054
G1 X164.768 Y82.584 E.04602
G1 X164.877 Y83.687 E.03475
G1 X164.87 Y121.873 E1.1973
G1 X164.768 Y122.789 E.0289
G1 X164.315 Y124.185 E.04602
G1 X163.858 Y124.986 E.02891
G1 X163.019 Y125.969 E.04052
G1 X162.369 Y126.5 E.02632
G1 X149.5 Y135.018 E.48388
G1 X148.738 Y135.44 E.02731
G1 X147.754 Y135.812 E.03298
G1 X146.33 Y136.05 E.04527
G1 X92.314 Y134.062 E1.69478
G1 X90.932 Y133.883 E.04369
G1 X90.088 Y133.651 E.02744
G1 X89.383 Y133.359 E.02393
G1 X88.4 Y132.791 E.0356
G1 X87.254 Y131.812 E.04726
G1 X86.539 Y130.93 E.0356
G1 X85.971 Y129.947 E.0356
G1 X85.679 Y129.242 E.02393
G1 X85.386 Y128.145 E.0356
G1 X85.267 Y127.016 E.0356
G1 X85.26 Y90.33 E1.15026
G1 X85.386 Y89.014 E.04145
G1 X85.564 Y88.272 E.02392
G1 X85.971 Y87.212 E.0356
G1 X86.539 Y86.229 E.0356
G1 X87.479 Y85.129 E.04537
M204 S1000
@Object 01.Base.STL id:0 copy 0
;WIPE_START
G1 F8640
G1 X88.267 Y84.457 E-.23913
G1 X90.248 Y83.052 E-.56087
;WIPE_END
G1 Z.6 F720
G1 X142.893 Y80.228 F10800
G1 Z.2 F720
G1 E.8 F2100
M204 S800
;TYPE:Perimeter
;WIDTH:0.419999
G1 F1200
G1 X142.99 Y80.083 E.00547
G1 X143.083 Y79.726 E.01157
G1 X143.081 Y78.974 E.02358
G1 X148.931 Y78.974 E.18342
G1 X148.931 Y79.763 E.02474
G1 X149.02 Y80.099 E.0109
G1 X149.145 Y80.293 E.00724
G1 X149.486 Y80.553 E.01345
G1 X150.078 Y80.797 E.02008
G1 X150.576 Y80.912 E.01603
G1 X151.201 Y80.974 E.01969
G1 X158.857 Y80.974 E.24005
G1 X159.081 Y80.982 E.00703
G1 X159.631 Y81.059 E.01741
G1 X160.231 Y81.272 E.01996
G1 X160.755 Y81.632 E.01993
G1 X161.193 Y82.093 E.01994
G1 X161.496 Y82.653 E.01996
G1 X161.677 Y83.263 E.01995
G1 X161.713 Y83.83 E.01781
G1 X161.713 Y121.543 E1.18246
G1 X161.677 Y122.111 E.01784
G1 X161.496 Y122.721 E.01995
G1 X161.193 Y123.28 E.01994
G1 X160.755 Y123.741 E.01994
G1 X160.231 Y124.102 E.01995
G1 X159.631 Y124.314 E.01995
G1 X158.969 Y124.4 E.02093
G1 X151.991 Y124.4 E.21879
G1 X151.608 Y124.428 E.01204
G1 X151.181 Y124.523 E.01372
G1 X150.775 Y124.684 E.01369
G1 X150.398 Y124.907 E.01373
G1 X150.061 Y125.185 E.0137
G1 X149.847 Y125.425 E.01008
G1 X149.538 Y125.882 E.0173
G1 X149.364 Y126.283 E.01371
G1 X149.255 Y126.707 E.01373
G1 X149.213 Y127.178 E.01483
G1 X149.213 Y129.654 E.07763
G1 X149.166 Y130.215 E.01765
G1 X149.036 Y130.729 E.01662
G1 X148.823 Y131.214 E.01661
G1 X148.533 Y131.658 E.01663
G1 X148.174 Y132.048 E.01662
G1 X147.756 Y132.374 E.01662
G1 X147.29 Y132.626 E.01661
G1 X146.788 Y132.799 E.01665
G1 X146.265 Y132.886 E.01662
G1 X145.735 Y132.886 E.01662
G1 X145.212 Y132.799 E.01662
G1 X144.71 Y132.626 E.01665
G1 X144.244 Y132.374 E.01661
G1 X143.826 Y132.048 E.01662
G1 X143.467 Y131.658 E.01662
G1 X143.177 Y131.214 E.01663
G1 X142.964 Y130.729 E.01661
G1 X142.834 Y130.215 E.01662
G1 X142.787 Y129.654 E.01765
G1 X142.787 Y127.42 E.07005
G1 X142.767 Y126.899 E.01635
G1 X142.681 Y126.441 E.01461
G1 X142.51 Y125.98 E.01542
G1 X142.28 Y125.585 E.01433
G1 X142.001 Y125.248 E.01372
G1 X141.674 Y124.959 E.01368
G1 X141.304 Y124.724 E.01374
G1 X140.903 Y124.551 E.01369
G1 X140.48 Y124.442 E.0137
G1 X140.009 Y124.4 E.01483
G1 X133.143 Y124.4 E.21528
G1 X132.576 Y124.364 E.01781
G1 X131.966 Y124.183 E.01995
G1 X131.407 Y123.879 E.01995
G1 X130.945 Y123.441 E.01996
G1 X130.585 Y122.917 E.01993
G1 X130.373 Y122.317 E.01995
G1 X130.287 Y121.656 E.0209
G1 X130.287 Y83.83 E1.18601
G1 X130.323 Y83.263 E.01781
G1 X130.504 Y82.653 E.01995
G1 X130.807 Y82.093 E.01996
G1 X131.245 Y81.632 E.01994
G1 X131.769 Y81.272 E.01993
G1 X132.369 Y81.059 E.01996
G1 X133.031 Y80.974 E.02093
G1 X140.874 Y80.969 E.24591
G1 X141.77 Y80.841 E.02838
G1 X142.568 Y80.53 E.02685
G1 X142.86 Y80.278 E.01209
M204 S1000
G1 X142.593 Y80.024 F10800
M204 S800
;TYPE:External perimeter
G1 F1200
G1 X142.706 Y79.727 E.00996
G1 X142.703 Y78.597 E.03543
G1 X149.307 Y78.597 E.20706
G1 X149.308 Y79.762 E.03653
G1 X149.394 Y80.005 E.00808
G1 X149.633 Y80.205 E.00977
G1 X150.151 Y80.424 E.01763
G1 X150.615 Y80.537 E.01497
G1 X151.201 Y80.597 E.01847
G1 X158.984 Y80.597 E.24403
G1 X159.483 Y80.636 E.01569
G1 X159.954 Y80.749 E.01519
G1 X160.402 Y80.935 E.01521
G1 X160.816 Y81.188 E.01521
G1 X161.184 Y81.503 E.01519
G1 X161.499 Y81.871 E.01519
G1 X161.752 Y82.284 E.01519
G1 X161.938 Y82.732 E.01521
G1 X162.051 Y83.203 E.01519
G1 X162.09 Y83.83 E.0197
G1 X162.09 Y121.67 E1.18644
G1 X162.051 Y122.17 E.01572
G1 X161.938 Y122.641 E.01519
M73 P0 R79
G1 X161.752 Y123.089 E.01521
G1 X161.499 Y123.502 E.01519
G1 X161.184 Y123.871 E.01521
G1 X160.816 Y124.185 E.01517
G1 X160.402 Y124.439 E.01523
G1 X159.954 Y124.624 E.0152
G1 X159.483 Y124.737 E.01519
G1 X158.984 Y124.777 E.0157
G1 X151.991 Y124.777 E.21926
G1 X151.638 Y124.804 E.0111
G1 X151.269 Y124.89 E.01188
G1 X150.919 Y125.032 E.01184
G1 X150.571 Y125.245 E.01279
G1 X150.134 Y125.67 E.01911
G1 X149.859 Y126.079 E.01545
G1 X149.712 Y126.428 E.01187
G1 X149.622 Y126.795 E.01185
G1 X149.59 Y127.178 E.01205
G1 X149.59 Y129.67 E.07813
G1 X149.54 Y130.277 E.0191
G1 X149.394 Y130.852 E.0186
G1 X149.156 Y131.395 E.01859
G1 X148.832 Y131.891 E.01858
G1 X148.43 Y132.327 E.01859
G1 X147.963 Y132.691 E.01856
G1 X147.442 Y132.973 E.01857
G1 X146.881 Y133.165 E.01859
G1 X146.296 Y133.263 E.0186
G1 X145.704 Y133.263 E.01856
G1 X145.119 Y133.165 E.0186
G1 X144.558 Y132.973 E.01859
G1 X144.037 Y132.691 E.01857
G1 X143.57 Y132.327 E.01856
G1 X143.168 Y131.891 E.01859
G1 X142.844 Y131.395 E.01858
G1 X142.606 Y130.852 E.01859
G1 X142.46 Y130.277 E.0186
G1 X142.41 Y129.67 E.0191
G1 X142.409 Y127.163 E.07861
G1 X142.314 Y126.529 E.0201
G1 X142.146 Y126.089 E.01477
G1 X141.866 Y125.67 E.0158
G1 X141.429 Y125.245 E.01911
G1 X141.107 Y125.046 E.01187
G1 X140.759 Y124.899 E.01184
G1 X140.392 Y124.808 E.01186
G1 X140.009 Y124.777 E.01205
G1 X133.016 Y124.777 E.21926
G1 X132.517 Y124.737 E.0157
G1 X132.046 Y124.624 E.01519
G1 X131.598 Y124.439 E.0152
G1 X131.184 Y124.185 E.01523
G1 X130.816 Y123.871 E.01517
G1 X130.501 Y123.502 E.01521
G1 X130.248 Y123.089 E.01519
G1 X130.062 Y122.641 E.01521
G1 X129.949 Y122.17 E.01519
G1 X129.91 Y121.67 E.01572
G1 X129.91 Y83.703 E1.19043
G1 X129.949 Y83.203 E.01572
G1 X130.062 Y82.732 E.01519
G1 X130.248 Y82.284 E.01521
G1 X130.501 Y81.871 E.01519
G1 X130.816 Y81.503 E.01519
G1 X131.184 Y81.188 E.01519
G1 X131.598 Y80.935 E.01521
G1 X132.046 Y80.749 E.01521
G1 X132.517 Y80.636 E.01519
G1 X133.016 Y80.597 E.01569
G1 X140.802 Y80.597 E.24412
G1 X141.647 Y80.484 E.02673
G1 X142.396 Y80.194 E.02518
G1 X142.547 Y80.063 E.00627
M204 S1000
G1 X142.909 Y80.053 F10800
;WIPE_START
G1 F8640
G1 X142.706 Y79.727 E-.08583
G1 X142.703 Y78.597 E-.26092
G1 X144.666 Y78.597 E-.45325
;WIPE_END
G1 Z.6 F720
G1 X145.996 Y127.204 F10800
G1 Z.2 F720
G1 E.8 F2100
M204 S800
;TYPE:Perimeter
G1 F1200
G1 X146.467 Y127.245 E.01482
G1 X146.873 Y127.359 E.01322
G1 X147.254 Y127.54 E.01323
G1 X147.66 Y127.841 E.01585
G1 X147.898 Y128.08 E.01058
G1 X148.142 Y128.424 E.01322
G1 X148.324 Y128.804 E.01321
G1 X148.44 Y129.21 E.01324
G1 X148.486 Y129.629 E.01322
G1 X148.453 Y130.079 E.01415
G1 X148.357 Y130.476 E.01281
G1 X148.196 Y130.852 E.01282
G1 X147.97 Y131.203 E.01309
G1 X147.685 Y131.514 E.01323
G1 X147.352 Y131.773 E.01323
G1 X146.98 Y131.972 E.01323
G1 X146.58 Y132.104 E.01321
G1 X146.163 Y132.168 E.01323
G1 X145.741 Y132.159 E.01323
G1 X145.327 Y132.08 E.01321
G1 X144.932 Y131.932 E.01323
G1 X144.568 Y131.719 E.01322
G1 X144.245 Y131.448 E.01322
G1 X143.973 Y131.126 E.01322
G1 X143.759 Y130.763 E.01321
G1 X143.609 Y130.369 E.01322
G1 X143.547 Y130.079 E.0093
G1 X143.518 Y129.533 E.01714
G1 X143.58 Y129.116 E.01322
G1 X143.711 Y128.715 E.01323
G1 X143.908 Y128.342 E.01323
G1 X144.166 Y128.008 E.01323
G1 X144.563 Y127.664 E.01647
G1 X144.898 Y127.462 E.01227
G1 X145.237 Y127.322 E.0115
G1 X145.627 Y127.228 E.01258
G1 X145.936 Y127.208 E.00971
M204 S1000
G1 X145.921 Y127.584 F10800
M204 S800
;TYPE:External perimeter
G1 F1200
G1 X146.016 Y127.576 E.00299
G1 X146.372 Y127.61 E.01121
G1 X146.718 Y127.702 E.01123
G1 X147.226 Y127.976 E.0181
G1 X147.595 Y128.304 E.01548
G1 X147.805 Y128.594 E.01123
G1 X147.964 Y128.915 E.01123
G1 X148.066 Y129.258 E.01122
G1 X148.109 Y129.613 E.01121
G1 X148.085 Y129.999 E.01213
G1 X148.007 Y130.335 E.01082
G1 X147.875 Y130.654 E.01082
G1 X147.687 Y130.954 E.0111
G1 X147.449 Y131.221 E.01121
G1 X147.168 Y131.444 E.01125
G1 X146.855 Y131.616 E.0112
G1 X146.516 Y131.733 E.01124
G1 X146.163 Y131.79 E.01121
G1 X145.805 Y131.788 E.01122
G1 X145.453 Y131.725 E.01121
G1 X145.116 Y131.603 E.01124
G1 X144.805 Y131.426 E.01122
G1 X144.528 Y131.199 E.01123
G1 X144.294 Y130.928 E.01123
G1 X144.109 Y130.622 E.01121
G1 X143.978 Y130.289 E.01122
G1 X143.915 Y129.999 E.0093
G1 X143.892 Y129.581 E.01313
G1 X143.941 Y129.226 E.01124
G1 X144.048 Y128.885 E.01121
G1 X144.212 Y128.567 E.01122
G1 X144.601 Y128.113 E.01875
G1 X144.985 Y127.837 E.01483
G1 X145.332 Y127.687 E.01185
G1 X145.659 Y127.604 E.01058
G1 X145.861 Y127.588 E.00635
M204 S1000
G1 X145.959 Y127.497 F10800
;WIPE_START
G1 F8640
G1 X146.016 Y127.576 E-.0359
G1 X146.372 Y127.61 E-.08258
G1 X146.718 Y127.702 E-.08267
G1 X147.226 Y127.976 E-.13327
G1 X147.595 Y128.304 E-.114
G1 X147.805 Y128.594 E-.08267
G1 X147.964 Y128.915 E-.08271
G1 X148.066 Y129.258 E-.08263
G1 X148.109 Y129.613 E-.08257
G1 X148.103 Y129.704 E-.021
;WIPE_END
G1 Z.6 F720
G1 X161.31 Y82.645 F10800
G1 Z.2 F720
G1 E.8 F2100
M204 S800
;TYPE:Solid infill
;WIDTH:0.421665
G1 F1200
G1 X160.673 Y82.008 E.02837
G1 X160.393 Y81.769 E.01159
G1 X160.076 Y81.575 E.0117
G1 X159.732 Y81.433 E.01172
G1 X159.508 Y81.379 E.00726
G1 X161.308 Y83.179 E.08017
G1 X161.341 Y83.316 E.00444
G1 X161.374 Y83.78 E.01465
G1 X158.907 Y81.313 E.10987
G1 X158.371 Y81.313 E.01688
G1 X161.374 Y84.316 E.13375
G1 X161.374 Y84.851 E.01685
G1 X157.835 Y81.313 E.1576
G1 X157.3 Y81.313 E.01685
G1 X161.374 Y85.387 E.18145
G1 X161.374 Y85.923 E.01688
G1 X156.764 Y81.313 E.20532
G1 X156.228 Y81.313 E.01688
G1 X161.374 Y86.458 E.22917
G1 X161.374 Y86.994 E.01688
G1 X155.693 Y81.313 E.25302
G1 X155.157 Y81.313 E.01688
G1 X161.374 Y87.529 E.27687
G1 X161.374 Y88.065 E.01688
G1 X154.622 Y81.313 E.30072
G1 X154.086 Y81.313 E.01688
G1 X161.374 Y88.601 E.32459
G1 X161.374 Y89.136 E.01685
G1 X153.55 Y81.313 E.34844
G1 X153.015 Y81.313 E.01685
G1 X161.374 Y89.672 E.37229
G1 X161.374 Y90.208 E.01688
G1 X152.479 Y81.313 E.39616
G1 X151.943 Y81.313 E.01688
G1 X161.374 Y90.743 E.42001
G1 X161.374 Y91.279 E.01688
G1 X151.408 Y81.313 E.44386
G1 X151.194 Y81.313 E.00674
G1 X150.836 Y81.277 E.01133
G1 X161.374 Y91.814 E.46931
G1 X161.374 Y92.35 E.01688
G1 X149.956 Y80.933 E.50851
M204 S1000
;WIPE_START
M73 Q1 S80
G1 F8640
G1 X152.406 Y83.383 E-.8
;WIPE_END
M73 P1 R79
G1 Z.6 F720
G1 X148.762 Y79.738 F10800
G1 Z.2 F720
G1 E.8 F2100
M204 S800
G1 F1200
G1 X148.337 Y79.313 E.01893
G1 X147.801 Y79.313 E.01688
G1 X161.374 Y92.886 E.60451
G1 X161.374 Y93.421 E.01685
G1 X147.265 Y79.313 E.62836
G1 X146.73 Y79.313 E.01685
G1 X161.374 Y93.957 E.65221
G1 X161.374 Y94.493 E.01688
G1 X146.194 Y79.313 E.67608
G1 X145.658 Y79.313 E.01688
G1 X161.374 Y95.028 E.69993
G1 X161.374 Y95.564 E.01688
G1 X145.123 Y79.313 E.72378
G1 X144.587 Y79.313 E.01688
G1 X161.374 Y96.099 E.74763
G1 X161.374 Y96.635 E.01688
G1 X144.052 Y79.313 E.77148
G1 X143.516 Y79.313 E.01688
G1 X161.374 Y97.171 E.79535
G1 X161.374 Y97.706 E.01685
G1 X143.42 Y79.753 E.7996
G1 X143.372 Y80.026 E.00873
G1 X143.307 Y80.175 E.00512
G1 X161.374 Y98.242 E.80466
G1 X161.374 Y98.778 E.01688
G1 X143.112 Y80.516 E.81334
G1 X142.828 Y80.767 E.01194
G1 X161.374 Y99.313 E.82599
G1 X161.374 Y99.849 E.01688
G1 X142.476 Y80.952 E.84165
G1 X142.08 Y81.091 E.01322
G1 X161.374 Y100.384 E.85928
G1 X161.374 Y100.92 E.01688
G1 X141.662 Y81.209 E.8779
M73 Q1 S79
G1 X141.185 Y81.267 E.01513
G1 X161.374 Y101.456 E.89917
G1 X161.374 Y101.991 E.01685
G1 X140.695 Y81.313 E.92097
G1 X140.16 Y81.313 E.01685
G1 X161.374 Y102.527 E.94482
G1 X161.374 Y103.063 E.01688
G1 X139.624 Y81.313 E.96869
G1 X139.088 Y81.313 E.01688
G1 X161.374 Y103.598 E.99254
G1 X161.374 Y104.134 E.01688
G1 X138.553 Y81.313 E1.01639
G1 X138.017 Y81.313 E.01688
G1 X161.374 Y104.669 E1.04024
G1 X161.374 Y105.205 E.01688
G1 X137.481 Y81.313 E1.06411
G1 X136.946 Y81.313 E.01685
G1 X161.374 Y105.741 E1.08796
G1 X161.374 Y106.276 E.01685
G1 X136.41 Y81.313 E1.11181
G1 X135.875 Y81.313 E.01685
G1 X161.374 Y106.812 E1.13566
G1 X161.374 Y107.348 E.01688
G1 X135.339 Y81.313 E1.15953
G1 X134.803 Y81.313 E.01688
G1 X161.374 Y107.883 E1.18338
G1 X161.374 Y108.419 E.01688
G1 X134.268 Y81.313 E1.20723
G1 X133.732 Y81.313 E.01688
G1 X161.374 Y108.954 E1.23108
M73 P1 R78
G1 X161.374 Y109.49 E.01688
G1 X133.196 Y81.313 E1.25496
G1 X132.689 Y81.341 E.01599
G1 X161.374 Y110.026 E1.27756
M73 P2 R78
M73 Q2 S79
G1 X161.374 Y110.561 E.01685
G1 X132.251 Y81.439 E1.29704
G1 X131.879 Y81.602 E.01279
G1 X161.374 Y111.097 E1.31363
G1 X161.374 Y111.633 E.01688
G1 X131.555 Y81.814 E1.32806
G1 X131.274 Y82.069 E.01195
G1 X161.374 Y112.168 E1.34056
G1 X161.374 Y112.704 E.01688
G1 X131.037 Y82.368 E1.35111
G1 X130.846 Y82.712 E.01239
G1 X161.374 Y113.239 E1.35962
G1 X161.374 Y113.775 E.01688
G1 X130.709 Y83.11 E1.36574
G1 X130.659 Y83.316 E.00668
G1 X130.639 Y83.576 E.00821
G1 X161.374 Y114.311 E1.36886
G1 X161.374 Y114.846 E.01685
G1 X130.626 Y84.099 E1.36942
G1 X130.626 Y84.635 E.01688
G1 X161.374 Y115.382 E1.36942
G1 X161.374 Y115.918 E.01688
G1 X130.626 Y85.171 E1.36942
G1 X130.626 Y85.706 E.01685
G1 X161.374 Y116.453 E1.36942
G1 X161.374 Y116.989 E.01688
G1 X130.626 Y86.242 E1.36942
G1 X130.626 Y86.777 E.01685
G1 X161.374 Y117.524 E1.36942
M73 Q2 S78
G1 X161.374 Y118.06 E.01688
G1 X130.626 Y87.313 E1.36942
G1 X130.626 Y87.849 E.01688
G1 X161.374 Y118.596 E1.36942
G1 X161.374 Y119.131 E.01685
G1 X130.626 Y88.384 E1.36942
G1 X130.626 Y88.92 E.01688
